public/noimg.svg

<svg width="854" height="480" fill="none" xmlns="http://www.w3.org/2000/svg">
<path d="M0 0h854v480H0V0Z" fill="#F2F2F2"/>
<path fill-rule="evenodd" clip-rule="evenodd" d="M392 124c0 11.046 8 20 25 20 13.518 0 17 7.611 17 17 0 7.639-5.039 14.102-11.974 16.245C416 179.107 410 181.5 410 190c0 6.5 7.596 11.5 14.5 11.5 2.182 0 7.574-1.364 9.5-2.5 19.5-11.5 28-22.5 28-45 0-27.354-14-50-48-50-11.046 0-22 8.955-22 20Zm28 5c2.761 0 5-2.239 5-5s-2.239-5-5-5-5 2.239-5 5 2.239 5 5 5Z" fill="#939393"/>
<path fill-rule="evenodd" clip-rule="evenodd" d="M392 202c31.271-38.174 46.52-59.644 70-98 0 0 1.5 0 2.5 1s1.569 1.906 1.569 1.906c-21.356 34.399-39.207 57.491-70 98-1.862-.381-2.823-.825-4.069-2.906Z" fill="#929292"/>
<path d="M310.148 295.168c.048 3.264.168 6.936.36 11.016.24 4.032.576 9.072 1.008 15.12-.624.144-1.344.264-2.16.36-.816.096-1.656.168-2.52.216-1.008-11.424-1.704-20.976-2.088-28.656-.384-7.68-.576-15.336-.576-22.968h.144l.072-.072c1.2-.576 2.232-.984 3.096-1.224.912-.288 1.944-.528 3.096-.72 4.944 6.384 9.24 12.768 12.888 19.152 3.696 6.336 7.128 13.296 10.296 20.88.096-1.584.144-3.36.144-5.328.048-2.016.072-5.112.072-9.288 0-6.432-.12-12-.36-16.704-.192-4.752-.504-8.544-.936-11.376 1.2-.384 2.256-.648 3.168-.792.96-.144 1.944-.24 2.952-.288.192 4.08.312 7.152.36 9.216.048 2.016.072 3.936.072 5.76 0 7.536-.12 14.136-.36 19.8-.24 5.664-.624 11.664-1.152 18-.72.144-1.464.264-2.232.36-.72.048-1.536.096-2.448.144-3.504-8.256-7.176-15.744-11.016-22.464-3.84-6.768-7.848-12.84-12.024-18.216-.048 2.544-.048 5.952 0 10.224.096 4.272.144 6.888.144 7.848Zm36.711 6.408c0-6.24 1.416-11.328 4.248-15.264 2.88-3.936 6.576-5.904 11.088-5.904 3.696 0 6.624 1.416 8.784 4.248 2.16 2.784 3.24 6.552 3.24 11.304 0 6.96-1.368 12.672-4.104 17.136-2.688 4.416-6.264 6.624-10.728 6.624-3.84 0-6.888-1.656-9.144-4.968-2.256-3.36-3.384-7.752-3.384-13.176Zm21.6-2.592c0-4.896-.624-8.544-1.872-10.944-1.248-2.4-3.144-3.6-5.688-3.6-2.304 0-4.32 1.584-6.048 4.752-1.68 3.168-2.52 7.056-2.52 11.664 0 4.224.72 7.776 2.16 10.656 1.44 2.832 3.384 4.248 5.832 4.248 2.16 0 4.056-1.632 5.688-4.896 1.632-3.312 2.448-7.272 2.448-11.88Zm33.175-15.048c0 10.752-.048 18.36-.144 22.824-.048 4.416-.168 8.976-.36 13.68-.48.144-1.152.264-2.016.36-.864.096-1.776.168-2.736.216.096-9.552.048-18.504-.144-26.856s-.552-16.08-1.08-23.184c.576-.336 1.176-.576 1.8-.72.672-.144 1.344-.216 2.016-.216.384 0 .744.024 1.08.072.384 0 .792.048 1.224.144.144 2.016.24 4.08.288 6.192.048 2.112.072 4.608.072 7.488Zm14.786 23.04c0 2.784.048 5.448.144 7.992.096 2.496.216 4.296.36 5.4-.624.192-1.368.36-2.232.504-.864.144-1.704.216-2.52.216-.336-5.664-.648-12.408-.936-20.232-.288-7.824-.432-14.304-.432-19.44.48-.24 1.056-.432 1.728-.576.672-.144 1.368-.216 2.088-.216s1.272.024 1.656.072c.432.048.84.12 1.224.216l-.288 2.88c-.096 1.392-.216 3.264-.36 5.616 1.488-2.304 3.096-4.032 4.824-5.184 1.776-1.152 3.672-1.728 5.688-1.728 1.728 0 3.144.408 4.248 1.224 1.152.816 2.04 2.064 2.664 3.744 1.68-2.976 3.456-5.208 5.328-6.696 1.92-1.488 3.984-2.232 6.192-2.232 2.832 0 4.896 1.08 6.192 3.24 1.296 2.16 1.944 5.568 1.944 10.224 0 4.224-.408 9-1.224 14.328-.768 5.328-1.728 10.08-2.88 14.256-.864-.048-1.8-.168-2.808-.36-.96-.144-1.776-.336-2.448-.576 1.296-5.184 2.256-10.056 2.88-14.616.672-4.608 1.008-9.024 1.008-13.248 0-3.024-.36-5.184-1.08-6.48-.672-1.344-1.8-2.016-3.384-2.016-1.584 0-3.144.792-4.68 2.376-1.536 1.584-2.88 3.792-4.032 6.624.048.816.072 1.512.072 2.088.048.528.072 1.032.072 1.512 0 3.408-.288 7.272-.864 11.592-.576 4.32-1.224 7.896-1.944 10.728-.72-.048-1.56-.144-2.52-.288-.912-.192-1.752-.408-2.52-.648.912-4.848 1.536-8.928 1.872-12.24.384-3.312.576-6.384.576-9.216 0-3.072-.36-5.256-1.08-6.552-.672-1.344-1.8-2.016-3.384-2.016-1.68 0-3.336.744-4.968 2.232-1.584 1.488-2.904 3.528-3.96 6.12-.048 1.92-.096 3.888-.144 5.904-.048 1.968-.072 3.792-.072 5.472Zm70.274-12.528c0 3.168-.432 7.368-1.296 12.6-.864 5.232-1.896 10.032-3.096 14.4-.72 0-1.488-.072-2.304-.216-.816-.144-1.608-.336-2.376-.576.048-.192.096-.432.144-.72.048-.24.144-.576.288-1.008.144-.768.264-1.32.36-1.656.096-.384.168-.72.216-1.008-1.008.72-2.16 1.272-3.456 1.656-1.248.384-2.592.576-4.032.576-3.264 0-5.904-.864-7.92-2.592-2.016-1.776-3.024-4.104-3.024-6.984 0-3.12 1.32-5.496 3.96-7.128 2.64-1.632 6.528-2.448 11.664-2.448.768 0 1.512.024 2.232.072.72 0 1.68.024 2.88.072.048-.48.072-1.008.072-1.584v-2.736c0-3.84-.48-6.624-1.44-8.352-.912-1.728-2.448-2.592-4.608-2.592-2.208 0-4.056.984-5.544 2.952-1.488 1.92-2.28 4.368-2.376 7.344-1.344-.192-2.424-.504-3.24-.936-.816-.48-1.44-1.104-1.872-1.872.576-3.168 2.16-5.856 4.752-8.064 2.64-2.208 5.64-3.312 9-3.312 3.648 0 6.384 1.2 8.208 3.6 1.872 2.352 2.808 5.856 2.808 10.512Zm-20.808 14.616c0 1.776.576 3.192 1.728 4.248 1.152 1.008 2.664 1.512 4.536 1.512 1.344 0 2.616-.192 3.816-.576 1.248-.432 2.4-1.056 3.456-1.872.384-1.968.672-3.72.864-5.256.24-1.536.408-3.072.504-4.608-4.944-.288-8.664.12-11.16 1.224-2.496 1.056-3.744 2.832-3.744 5.328Zm33.779-8.568c0 4.368.624 7.8 1.872 10.296 1.248 2.496 2.904 3.744 4.968 3.744 1.584 0 2.928-.792 4.032-2.376 1.152-1.632 2.136-4.152 2.952-7.56-.096-3.6-.36-6.888-.792-9.864-.384-3.024-.96-5.832-1.728-8.424-.432-.144-.912-.24-1.44-.288-.48-.096-.984-.144-1.512-.144-2.784 0-4.872 1.224-6.264 3.672-1.392 2.4-2.088 6.048-2.088 10.944Zm19.44 6.336c0 9.696-1.272 17.112-3.816 22.248-2.544 5.136-6.048 7.704-10.512 7.704-3.072 0-5.616-1.032-7.632-3.096s-3.288-4.872-3.816-8.424c.72-.528 1.512-.984 2.376-1.368.912-.384 1.824-.672 2.736-.864.48 3.408 1.248 5.88 2.304 7.416 1.056 1.536 2.52 2.304 4.392 2.304 2.4 0 4.32-1.704 5.76-5.112 1.44-3.36 2.304-8.28 2.592-14.76-.96 1.968-2.088 3.432-3.384 4.392-1.248.96-2.712 1.44-4.392 1.44-3.648 0-6.552-1.608-8.712-4.824-2.112-3.264-3.168-7.656-3.168-13.176 0-5.856 1.296-10.464 3.888-13.824 2.64-3.408 6.168-5.112 10.584-5.112 1.392 0 2.808.168 4.248.504 1.488.336 2.856.816 4.104 1.44.72 3.12 1.296 6.84 1.728 11.16.48 4.272.72 8.256.72 11.952Zm12.826-10.368c1.392.48 2.88.864 4.464 1.152 1.632.24 3.336.36 5.112.36.48 0 1.032-.024 1.656-.072.672-.048 1.152-.12 1.44-.216.384-1.392.648-2.664.792-3.816.192-1.2.288-2.28.288-3.24 0-2.112-.36-3.624-1.08-4.536-.672-.912-1.776-1.368-3.312-1.368-2.016 0-3.864 1.08-5.544 3.24-1.68 2.16-2.952 4.992-3.816 8.496Zm16.056 10.296c.768.144 1.536.432 2.304.864.816.432 1.512.936 2.088 1.512-.912 2.736-2.784 5.208-5.616 7.416-2.784 2.16-5.688 3.24-8.712 3.24-3.888 0-6.96-1.512-9.216-4.536-2.208-3.024-3.312-7.08-3.312-12.168 0-5.712 1.584-10.848 4.752-15.408 3.216-4.56 7.032-6.84 11.448-6.84 2.832 0 5.064.912 6.696 2.736 1.68 1.776 2.52 4.2 2.52 7.272 0 1.632-.168 3.288-.504 4.968-.288 1.632-.696 3.192-1.224 4.68-.96.336-2.136.6-3.528.792-1.344.144-3.024.216-5.04.216-1.536 0-3.12-.12-4.752-.36-1.584-.288-3.12-.696-4.608-1.224-.096.576-.168 1.152-.216 1.728v1.584c0 3.792.648 6.864 1.944 9.216 1.344 2.304 3.12 3.456 5.328 3.456 1.92 0 3.84-.888 5.76-2.664 1.92-1.824 3.216-3.984 3.888-6.48Z" fill="#929292"/>
</svg>

<svg width="854" height="480" viewBox="0 0 854 480" fill="none" xmlns="http://www.w3.org/2000/svg">
<path d="M0 0H854V480H0V0Z" fill="#F2F2F2"/>
<path fill-rule="evenodd" clip-rule="evenodd" d="M392 124C392 135.046 400 144 417 144C430.518 144 434 151.611 434 161C434 168.639 428.961 175.102 422.026 177.245C416 179.107 410 181.5 410 190C410 196.5 417.596 201.5 424.5 201.5C426.682 201.5 432.074 200.136 434 199C453.5 187.5 462 176.5 462 154C462 126.646 448 104 414 104C402.954 104 392 112.955 392 124ZM420 129C422.761 129 425 126.761 425 124C425 121.239 422.761 119 420 119C417.239 119 415 121.239 415 124C415 126.761 417.239 129 420 129Z" fill="#939393"/>
<path fill-rule="evenodd" clip-rule="evenodd" d="M392 202C423.271 163.826 438.52 142.356 462 104C462 104 463.5 104 464.5 105C465.5 106 466.069 106.906 466.069 106.906C444.713 141.305 426.862 164.397 396.069 204.906C394.207 204.525 393.246 204.081 392 202Z" fill="#929292"/>
<path d="M310.148 295.168C310.196 298.432 310.316 302.104 310.508 306.184C310.748 310.216 311.084 315.256 311.516 321.304C310.892 321.448 310.172 321.568 309.356 321.664C308.54 321.76 307.7 321.832 306.836 321.88C305.828 310.456 305.132 300.904 304.748 293.224C304.364 285.544 304.172 277.888 304.172 270.256C304.22 270.256 304.268 270.256 304.316 270.256C304.364 270.208 304.388 270.184 304.388 270.184C305.588 269.608 306.62 269.2 307.484 268.96C308.396 268.672 309.428 268.432 310.58 268.24C315.524 274.624 319.82 281.008 323.468 287.392C327.164 293.728 330.596 300.688 333.764 308.272C333.86 306.688 333.908 304.912 333.908 302.944C333.956 300.928 333.98 297.832 333.98 293.656C333.98 287.224 333.86 281.656 333.62 276.952C333.428 272.2 333.116 268.408 332.684 265.576C333.884 265.192 334.94 264.928 335.852 264.784C336.812 264.64 337.796 264.544 338.804 264.496C338.996 268.576 339.116 271.648 339.164 273.712C339.212 275.728 339.236 277.648 339.236 279.472C339.236 287.008 339.116 293.608 338.876 299.272C338.636 304.936 338.252 310.936 337.724 317.272C337.004 317.416 336.26 317.536 335.492 317.632C334.772 317.68 333.956 317.728 333.044 317.776C329.54 309.52 325.868 302.032 322.028 295.312C318.188 288.544 314.18 282.472 310.004 277.096C309.956 279.64 309.956 283.048 310.004 287.32C310.1 291.592 310.148 294.208 310.148 295.168ZM346.859 301.576C346.859 295.336 348.275 290.248 351.107 286.312C353.987 282.376 357.683 280.408 362.195 280.408C365.891 280.408 368.819 281.824 370.979 284.656C373.139 287.44 374.219 291.208 374.219 295.96C374.219 302.92 372.851 308.632 370.115 313.096C367.427 317.512 363.851 319.72 359.387 319.72C355.547 319.72 352.499 318.064 350.243 314.752C347.987 311.392 346.859 307 346.859 301.576ZM368.459 298.984C368.459 294.088 367.835 290.44 366.587 288.04C365.339 285.64 363.443 284.44 360.899 284.44C358.595 284.44 356.579 286.024 354.851 289.192C353.171 292.36 352.331 296.248 352.331 300.856C352.331 305.08 353.051 308.632 354.491 311.512C355.931 314.344 357.875 315.76 360.323 315.76C362.483 315.76 364.379 314.128 366.011 310.864C367.643 307.552 368.459 303.592 368.459 298.984ZM401.634 283.936C401.634 294.688 401.586 302.296 401.49 306.76C401.442 311.176 401.322 315.736 401.13 320.44C400.65 320.584 399.978 320.704 399.114 320.8C398.25 320.896 397.338 320.968 396.378 321.016C396.474 311.464 396.426 302.512 396.234 294.16C396.042 285.808 395.682 278.08 395.154 270.976C395.73 270.64 396.33 270.4 396.954 270.256C397.626 270.112 398.298 270.04 398.97 270.04C399.354 270.04 399.714 270.064 400.05 270.112C400.434 270.112 400.842 270.16 401.274 270.256C401.418 272.272 401.514 274.336 401.562 276.448C401.61 278.56 401.634 281.056 401.634 283.936ZM416.42 306.976C416.42 309.76 416.468 312.424 416.564 314.968C416.66 317.464 416.78 319.264 416.924 320.368C416.3 320.56 415.556 320.728 414.692 320.872C413.828 321.016 412.988 321.088 412.172 321.088C411.836 315.424 411.524 308.68 411.236 300.856C410.948 293.032 410.804 286.552 410.804 281.416C411.284 281.176 411.86 280.984 412.532 280.84C413.204 280.696 413.9 280.624 414.62 280.624C415.34 280.624 415.892 280.648 416.276 280.696C416.708 280.744 417.116 280.816 417.5 280.912C417.452 281.392 417.356 282.352 417.212 283.792C417.116 285.184 416.996 287.056 416.852 289.408C418.34 287.104 419.948 285.376 421.676 284.224C423.452 283.072 425.348 282.496 427.364 282.496C429.092 282.496 430.508 282.904 431.612 283.72C432.764 284.536 433.652 285.784 434.276 287.464C435.956 284.488 437.732 282.256 439.604 280.768C441.524 279.28 443.588 278.536 445.796 278.536C448.628 278.536 450.692 279.616 451.988 281.776C453.284 283.936 453.932 287.344 453.932 292C453.932 296.224 453.524 301 452.708 306.328C451.94 311.656 450.98 316.408 449.828 320.584C448.964 320.536 448.028 320.416 447.02 320.224C446.06 320.08 445.244 319.888 444.572 319.648C445.868 314.464 446.828 309.592 447.452 305.032C448.124 300.424 448.46 296.008 448.46 291.784C448.46 288.76 448.1 286.6 447.38 285.304C446.708 283.96 445.58 283.288 443.996 283.288C442.412 283.288 440.852 284.08 439.316 285.664C437.78 287.248 436.436 289.456 435.284 292.288C435.332 293.104 435.356 293.8 435.356 294.376C435.404 294.904 435.428 295.408 435.428 295.888C435.428 299.296 435.14 303.16 434.564 307.48C433.988 311.8 433.34 315.376 432.62 318.208C431.9 318.16 431.06 318.064 430.1 317.92C429.188 317.728 428.348 317.512 427.58 317.272C428.492 312.424 429.116 308.344 429.452 305.032C429.836 301.72 430.028 298.648 430.028 295.816C430.028 292.744 429.668 290.56 428.948 289.264C428.276 287.92 427.148 287.248 425.564 287.248C423.884 287.248 422.228 287.992 420.596 289.48C419.012 290.968 417.692 293.008 416.636 295.6C416.588 297.52 416.54 299.488 416.492 301.504C416.444 303.472 416.42 305.296 416.42 306.976ZM486.694 294.448C486.694 297.616 486.262 301.816 485.398 307.048C484.534 312.28 483.502 317.08 482.302 321.448C481.582 321.448 480.814 321.376 479.998 321.232C479.182 321.088 478.39 320.896 477.622 320.656C477.67 320.464 477.718 320.224 477.766 319.936C477.814 319.696 477.91 319.36 478.054 318.928C478.198 318.16 478.318 317.608 478.414 317.272C478.51 316.888 478.582 316.552 478.63 316.264C477.622 316.984 476.47 317.536 475.174 317.92C473.926 318.304 472.582 318.496 471.142 318.496C467.878 318.496 465.238 317.632 463.222 315.904C461.206 314.128 460.198 311.8 460.198 308.92C460.198 305.8 461.518 303.424 464.158 301.792C466.798 300.16 470.686 299.344 475.822 299.344C476.59 299.344 477.334 299.368 478.054 299.416C478.774 299.416 479.734 299.44 480.934 299.488C480.982 299.008 481.006 298.48 481.006 297.904C481.006 297.328 481.006 296.416 481.006 295.168C481.006 291.328 480.526 288.544 479.566 286.816C478.654 285.088 477.118 284.224 474.958 284.224C472.75 284.224 470.902 285.208 469.414 287.176C467.926 289.096 467.134 291.544 467.038 294.52C465.694 294.328 464.614 294.016 463.798 293.584C462.982 293.104 462.358 292.48 461.926 291.712C462.502 288.544 464.086 285.856 466.678 283.648C469.318 281.44 472.318 280.336 475.678 280.336C479.326 280.336 482.062 281.536 483.886 283.936C485.758 286.288 486.694 289.792 486.694 294.448ZM465.886 309.064C465.886 310.84 466.462 312.256 467.614 313.312C468.766 314.32 470.278 314.824 472.15 314.824C473.494 314.824 474.766 314.632 475.966 314.248C477.214 313.816 478.366 313.192 479.422 312.376C479.806 310.408 480.094 308.656 480.286 307.12C480.526 305.584 480.694 304.048 480.79 302.512C475.846 302.224 472.126 302.632 469.63 303.736C467.134 304.792 465.886 306.568 465.886 309.064ZM499.665 300.496C499.665 304.864 500.289 308.296 501.537 310.792C502.785 313.288 504.441 314.536 506.505 314.536C508.089 314.536 509.433 313.744 510.537 312.16C511.689 310.528 512.673 308.008 513.489 304.6C513.393 301 513.129 297.712 512.697 294.736C512.313 291.712 511.737 288.904 510.969 286.312C510.537 286.168 510.057 286.072 509.529 286.024C509.049 285.928 508.545 285.88 508.017 285.88C505.233 285.88 503.145 287.104 501.753 289.552C500.361 291.952 499.665 295.6 499.665 300.496ZM519.105 306.832C519.105 316.528 517.833 323.944 515.289 329.08C512.745 334.216 509.241 336.784 504.777 336.784C501.705 336.784 499.161 335.752 497.145 333.688C495.129 331.624 493.857 328.816 493.329 325.264C494.049 324.736 494.841 324.28 495.705 323.896C496.617 323.512 497.529 323.224 498.441 323.032C498.921 326.44 499.689 328.912 500.745 330.448C501.801 331.984 503.265 332.752 505.137 332.752C507.537 332.752 509.457 331.048 510.897 327.64C512.337 324.28 513.201 319.36 513.489 312.88C512.529 314.848 511.401 316.312 510.105 317.272C508.857 318.232 507.393 318.712 505.713 318.712C502.065 318.712 499.161 317.104 497.001 313.888C494.889 310.624 493.833 306.232 493.833 300.712C493.833 294.856 495.129 290.248 497.721 286.888C500.361 283.48 503.889 281.776 508.305 281.776C509.697 281.776 511.113 281.944 512.553 282.28C514.041 282.616 515.409 283.096 516.657 283.72C517.377 286.84 517.953 290.56 518.385 294.88C518.865 299.152 519.105 303.136 519.105 306.832ZM531.931 296.464C533.323 296.944 534.811 297.328 536.395 297.616C538.027 297.856 539.731 297.976 541.507 297.976C541.987 297.976 542.539 297.952 543.163 297.904C543.835 297.856 544.315 297.784 544.603 297.688C544.987 296.296 545.251 295.024 545.395 293.872C545.587 292.672 545.683 291.592 545.683 290.632C545.683 288.52 545.323 287.008 544.603 286.096C543.931 285.184 542.827 284.728 541.291 284.728C539.275 284.728 537.427 285.808 535.747 287.968C534.067 290.128 532.795 292.96 531.931 296.464ZM547.987 306.76C548.755 306.904 549.523 307.192 550.291 307.624C551.107 308.056 551.803 308.56 552.379 309.136C551.467 311.872 549.595 314.344 546.763 316.552C543.979 318.712 541.075 319.792 538.051 319.792C534.163 319.792 531.091 318.28 528.835 315.256C526.627 312.232 525.523 308.176 525.523 303.088C525.523 297.376 527.107 292.24 530.275 287.68C533.491 283.12 537.307 280.84 541.723 280.84C544.555 280.84 546.787 281.752 548.419 283.576C550.099 285.352 550.939 287.776 550.939 290.848C550.939 292.48 550.771 294.136 550.435 295.816C550.147 297.448 549.739 299.008 549.211 300.496C548.251 300.832 547.075 301.096 545.683 301.288C544.339 301.432 542.659 301.504 540.643 301.504C539.107 301.504 537.523 301.384 535.891 301.144C534.307 300.856 532.771 300.448 531.283 299.92C531.187 300.496 531.115 301.072 531.067 301.648C531.067 302.176 531.067 302.704 531.067 303.232C531.067 307.024 531.715 310.096 533.011 312.448C534.355 314.752 536.131 315.904 538.339 315.904C540.259 315.904 542.179 315.016 544.099 313.24C546.019 311.416 547.315 309.256 547.987 306.76Z" fill="#929292"/>
</svg>
